svgs/duotone/conveyor-belt.svg

<svg xmlns="http://www.w3.org/2000/svg" viewBox="0 0 640 512"><!--! Font Awesome Pro 6.3.0 by @fontawesome - https://fontawesome.com License - https://fontawesome.com/license (Commercial License) Copyright 2023 Fonticons, Inc. --><defs><style>.fa-secondary{opacity:.4}</style></defs><path class="fa-primary" d="M480 0h-96v128l-64-32L256 128V0H160C142.3 0 128 14.33 128 32v192c0 17.67 14.33 32 32 32h320c17.67 0 32-14.33 32-32V32C512 14.33 497.7 0 480 0z"/><path class="fa-secondary" d="M544 320h-448c-54.4 0-96 41.6-96 96s41.6 96 96 96h448c54.4 0 96-41.6 96-96S598.4 320 544 320zM128 448c-19.2 0-32-12.8-32-32s12.8-32 32-32s31.1 12.8 31.1 32S147.2 448 128 448zM319.1 448c-19.2 0-32-12.8-32-32s12.8-32 32-32s32 12.8 32 32S339.2 448 319.1 448zM512 448c-19.2 0-32-12.8-32-32S492.8 384 512 384s32 12.8 32 32S531.2 448 512 448zM384 128V0H256v128l64-32L384 128z"/></svg>

<svg xmlns="http://www.w3.org/2000/svg" viewBox="0 0 640 512"><!-- Font Awesome Pro 6.0.0-alpha2 by @fontawesome - https://fontawesome.com License - https://fontawesome.com/license (Commercial License) --><defs><style>.fa-secondary{opacity:.4}</style></defs><path d="M128 224V32C128 14.327 142.327 0 160 0H480C497.673 0 512 14.327 512 32V224C512 241.673 497.673 256 480 256H160C142.327 256 128 241.673 128 224Z" class="fa-secondary"/><path d="M544 320H96C41.6 320 0 361.6 0 416S41.6 512 96 512H544C598.4 512 640 470.4 640 416S598.4 320 544 320ZM128 448C108.8 448 96 435.2 96 416S108.8 384 128 384S160 396.8 160 416S147.2 448 128 448ZM320 448C300.8 448 288 435.2 288 416S300.8 384 320 384S352 396.8 352 416S339.2 448 320 448ZM512 448C492.8 448 480 435.2 480 416S492.8 384 512 384S544 396.8 544 416S531.2 448 512 448ZM384 128V0H256V128L320 96L384 128Z" class="fa-primary"/></svg>
